**kern	**kern	**dynam
*part1	*part1	*part1
*staff2	*staff1	*
*I"Piano	*	*
*clefF4	*clefG2	*
*k[b-e-a-]	*k[b-e-a-]	*
=1	=1	=1
4AA- 4E-	8r	.
.	(8c	.
8r	4c) 4f#X 4cc	.
8AA- 8E-	.	.
=	=	=
4AA- 4E-	8r	.
.	(8c	.
8r	4c) 4f#X 4cc	.
8AA- 8E-	.	.
=	=	=
4AA- 4E-	8r	.
!	!LO:TX:b:i:t=cresc.	!
.	(8c	.
8r	8cL) 8f#X 8cc	.
8AA- 8C 8E-	8e-J 8f# 8cc 8ee-	.
=	=	=
4GG 4C 4E-	8r	.
.	(8c	f
8r	8gL) 8cc 8ee- 8gg	.
8GG 8F 8G	8bnJ 8dd 8gg 8bbn	.
=	=	=
4C 4E- 4G	8cc 8ee- 8gg 8ccc	.
.	(8G	p
8r	4G^) 4e-	.
8C 8E-	.	.
=	=	=
4C 4En	8r	.
.	(8G	.
8r	4G^) 4B- 4c	.
8C 8E	.	.
=	=	=
4C 4F	8r	.
.	(8An	.
8r	4A^) 4c 4f	.
8C 8F	.	.
=	=	=
*-	*-	*-
!!!system-decoration: {(s1,s2)}
